src/icons/wallet.svg

<svg width="46" height="40" viewBox="0 0 46 40" fill="none" xmlns="http://www.w3.org/2000/svg">
<path d="M5.75 0C2.57852 0 0 2.5625 0 5.71429V34.2857C0 37.4375 2.57852 40 5.75 40H40.25C43.4215 40 46 37.4375 46 34.2857V14.2857C46 11.1339 43.4215 8.57143 40.25 8.57143H7.1875C6.39687 8.57143 5.75 7.92857 5.75 7.14286C5.75 6.35714 6.39687 5.71429 7.1875 5.71429H40.25C41.8402 5.71429 43.125 4.4375 43.125 2.85714C43.125 1.27679 41.8402 0 40.25 0H5.75ZM37.375 21.4286C38.1375 21.4286 38.8688 21.7296 39.4079 22.2654C39.9471 22.8012 40.25 23.528 40.25 24.2857C40.25 25.0435 39.9471 25.7702 39.4079 26.306C38.8688 26.8418 38.1375 27.1429 37.375 27.1429C36.6125 27.1429 35.8812 26.8418 35.3421 26.306C34.8029 25.7702 34.5 25.0435 34.5 24.2857C34.5 23.528 34.8029 22.8012 35.3421 22.2654C35.8812 21.7296 36.6125 21.4286 37.375 21.4286Z" fill="#FFB801"/>
</svg>

<svg xmlns="http://www.w3.org/2000/svg" width="46" height="40" fill="none">
  <path fill="#FFB801" d="M5.75 0C2.579 0 0 2.563 0 5.714v28.572C0 37.437 2.579 40 5.75 40h34.5c3.172 0 5.75-2.563 5.75-5.714v-20c0-3.152-2.578-5.715-5.75-5.715H7.187c-.79 0-1.437-.642-1.437-1.428 0-.786.647-1.429 1.438-1.429H40.25a2.863 2.863 0 0 0 2.875-2.857A2.863 2.863 0 0 0 40.25 0H5.75Zm31.625 21.429c.763 0 1.494.3 2.033.836a2.848 2.848 0 0 1 0 4.041 2.884 2.884 0 0 1-4.066 0 2.848 2.848 0 0 1 0-4.04 2.884 2.884 0 0 1 2.033-.837Z"/>
</svg>
